X:1
T:Hollow Ground
M:4/4
L:1/4
K:E
 B B| B A G F| E B, E D| C z A, C| B, z| z B,| C D E F| E B, E E| B, z C D|\
 E2||
